X: 20977
T: Julia Clifford's
R: slide
M: 12/8
K: Adorian
|:gf|e2 A ABd e2 d efg|eAA ABd edB Bgf|
e3 AB/c/d e2 d e2 g|age g2 B d2 B d:|
|:fg|e2 a aga aba aga|eaa aga efd efg|
[1 e3 a^ga aba aga|edB g2 G d2 B d:|
[2 aba gag fgf efe|dB/c/d g2 B d2 B d||

